X:11253
T:Mountain Ranger's Hornpipe
M:2/4
L:1/16
K:Bb
FE|DFBc d2cd|edcB G2FE|DFBc dBAB|gfdB c2FE|!
DFBc d2cd|edcB G2FE|DFBd cBAc|B2b2 B2:|!
|:Bc|dBAB GBFB|DFBc dBAB|gBfB edcB|GccB ABce|!
dBAB GBFB|DFBc dBAB|gBfB edcB|AFGA B2:|!
